assets/img/braze_icons/database-01.svg

<svg fill="none" height="24" viewBox="0 0 24 24" width="24" xmlns="http://www.w3.org/2000/svg"><g fill="#801ed7"><path d="m2.41485 13.5c.12001 0 .23314.053.31706.1387.1113.1138.22947.2185.35015.3141.57885.4587 1.35506.8274 2.22627 1.1182 1.75276.5852 4.11491.929 6.69167.929 2.5768 0 4.9389-.3438 6.6917-.929.8712-.2908 1.6474-.6595 2.2262-1.1182.1207-.0956.2389-.2003.3502-.3141.0839-.0857.197-.1387.317-.1387.2292 0 .4149.1857.4149.4149v5.0851c0 .8494-.5132 1.502-1.0821 1.9528-.5788.4587-1.355.8274-2.2262 1.1182-1.7528.5852-4.1149.929-6.6917.929-2.57676 0-4.93891-.3438-6.69167-.929-.87121-.2908-1.64742-.6595-2.22627-1.1182-.56887-.4508-1.08206-1.1034-1.08206-1.9528v-5.0851c0-.2292.18574-.4149.41485-.4149z"/><path clip-rule="evenodd" d="m20.9117 3.04685c.5694.44874 1.0883 1.1012 1.0883 1.95315v5c0 .8494-.5132 1.502-1.0821 1.9528-.5788.4587-1.355.8274-2.2262 1.1182-1.7528.5852-4.1149.929-6.6917.929-2.57676 0-4.93891-.3438-6.69167-.929-.87121-.2908-1.64742-.6595-2.22627-1.1182-.56887-.4508-1.08206-1.1034-1.08206-1.9528v-5c0-.85195.51889-1.50441 1.08829-1.95315.58067-.45762 1.35895-.826 2.23152-1.11685 1.7556-.5852 4.11734-.93 6.68019-.93 2.5629 0 4.9246.3448 6.6802.93.8726.29085 1.6508.65923 2.2315 1.11685zm-16.9117 1.95309s-.00002-.00515.00305-.01523c.0034-.01115.01178-.03316.03202-.06614.04245-.06914.12901-.1731.29117-.30089.33018-.26021.86992-.53828 1.62603-.79032 1.50175-.50058 3.64002-.82736 6.04773-.82736 2.4077 0 4.546.32678 6.0477.82736.7561.25204 1.2959.53011 1.6261.79032.1621.12779.2487.23175.2911.30089.0203.03298.0286.05499.032.06614.0031.01008.0031.01551.0031.01551s-.0001.00549-.0031.01507c-.0034.01115-.0117.03316-.032.06614-.0424.06914-.129.1731-.2911.30089-.3302.26021-.87.53828-1.6261.79032-1.5017.50058-3.64.82736-6.0477.82736-2.40771 0-4.54598-.32678-6.04773-.82736-.75611-.25204-1.29585-.53011-1.62603-.79032-.16216-.12779-.24872-.23175-.29117-.30089-.02024-.03298-.02862-.05499-.03202-.06614-.00287-.00945-.00305-.01535-.00305-.01535z" fill-rule="evenodd"/></g></svg>

<svg width="24" height="24" viewBox="0 0 24 24" fill="none" xmlns="http://www.w3.org/2000/svg">
<path d="M2.41485 13.5C2.53486 13.5 2.64799 13.553 2.73191 13.6387C2.84321 13.7525 2.96138 13.8572 3.08206 13.9528C3.66091 14.4115 4.43712 14.7802 5.30833 15.071C7.06109 15.6562 9.42324 16 12 16C14.5768 16 16.9389 15.6562 18.6917 15.071C19.5629 14.7802 20.3391 14.4115 20.9179 13.9528C21.0386 13.8572 21.1568 13.7525 21.2681 13.6387C21.352 13.553 21.4651 13.5 21.5851 13.5C21.8143 13.5 22 13.6857 22 13.9149V19C22 19.8494 21.4868 20.502 20.9179 20.9528C20.3391 21.4115 19.5629 21.7802 18.6917 22.071C16.9389 22.6562 14.5768 23 12 23C9.42324 23 7.06109 22.6562 5.30833 22.071C4.43712 21.7802 3.66091 21.4115 3.08206 20.9528C2.51319 20.502 2 19.8494 2 19V13.9149C2 13.6857 2.18574 13.5 2.41485 13.5Z" fill="#801ED7"/>
<path fill-rule="evenodd" clip-rule="evenodd" d="M20.9117 3.04685C21.4811 3.49559 22 4.14805 22 5V10C22 10.8494 21.4868 11.502 20.9179 11.9528C20.3391 12.4115 19.5629 12.7802 18.6917 13.071C16.9389 13.6562 14.5768 14 12 14C9.42324 14 7.06109 13.6562 5.30833 13.071C4.43712 12.7802 3.66091 12.4115 3.08206 11.9528C2.51319 11.502 2 10.8494 2 10V5C2 4.14805 2.51889 3.49559 3.08829 3.04685C3.66896 2.58923 4.44724 2.22085 5.31981 1.93C7.07541 1.3448 9.43715 1 12 1C14.5629 1 16.9246 1.3448 18.6802 1.93C19.5528 2.22085 20.331 2.58923 20.9117 3.04685ZM4 4.99994C4 4.99994 3.99998 4.99479 4.00305 4.98471C4.00645 4.97356 4.01483 4.95155 4.03507 4.91857C4.07752 4.84943 4.16408 4.74547 4.32624 4.61768C4.65642 4.35747 5.19616 4.0794 5.95227 3.82736C7.45402 3.32678 9.59229 3 12 3C14.4077 3 16.546 3.32678 18.0477 3.82736C18.8038 4.0794 19.3436 4.35747 19.6738 4.61768C19.8359 4.74547 19.9225 4.84943 19.9649 4.91857C19.9852 4.95155 19.9935 4.97356 19.9969 4.98471C20 4.99479 20 5.00022 20 5.00022C20 5.00022 19.9999 5.00571 19.9969 5.01529C19.9935 5.02644 19.9852 5.04845 19.9649 5.08143C19.9225 5.15057 19.8359 5.25453 19.6738 5.38232C19.3436 5.64253 18.8038 5.9206 18.0477 6.17264C16.546 6.67322 14.4077 7 12 7C9.59229 7 7.45402 6.67322 5.95227 6.17264C5.19616 5.9206 4.65642 5.64253 4.32624 5.38232C4.16408 5.25453 4.07752 5.15057 4.03507 5.08143C4.01483 5.04845 4.00645 5.02644 4.00305 5.01529C4.00018 5.00584 4 4.99994 4 4.99994Z" fill="#801ED7"/>
</svg>
